X:89
T: Der heimkehrende Soldat
N: Q1103F
O: Mitteleuropa, Deutschland
N: Melodievergleich zu Q0103A, anderes Lied. Text wurde auf bekannte
N: Melodie geschrieben. Anhaengsel. Letzte Zeile = Refrain.
R: ???
M: 6/8
L: 1/16
K: G
D2 | D2G2G2G2A2B2 | B2A2A2A4d2 | B2z8
D2 | D2G2G2G2A2B2 | B2A2A2A4d2 | B2z8
GB | d3dd2d2e2d2 | d2c2c2c4
c2 | B3BB2d2c2B2 | B2A2A2A4
d2 | B2z2B2A2z2A2 | G2z8

